app/public/static/img/icons/shocked.svg

<svg xmlns="http://www.w3.org/2000/svg" viewBox="0 0 368 368" width="512" height="512"><g fill="#ffb482"><path d="M184 0C82.544 0 0 82.544 0 184s82.544 184 184 184 184-82.544 184-184S285.456 0 184 0zm0 352c-92.64 0-168-75.36-168-168S91.36 16 184 16s168 75.36 168 168-75.36 168-168 168z"/><path d="M264 128c-22.056 0-40 17.944-40 40s17.944 40 40 40 40-17.944 40-40-17.944-40-40-40zm0 64c-13.232 0-24-10.768-24-24s10.768-24 24-24 24 10.768 24 24-10.768 24-24 24zm-120-24c0-22.056-17.944-40-40-40s-40 17.944-40 40 17.944 40 40 40 40-17.944 40-40zm-40 24c-13.232 0-24-10.768-24-24s10.768-24 24-24 24 10.768 24 24-10.768 24-24 24zm128 48h-96c-4.416 0-8 3.584-8 8s3.584 8 8 8h96c4.416 0 8-3.584 8-8s-3.584-8-8-8z"/></g></svg>

<?xml version="1.0" encoding="iso-8859-1"?>
<!-- Generator: Adobe Illustrator 19.0.0, SVG Export Plug-In . SVG Version: 6.00 Build 0)  -->
<svg xmlns="http://www.w3.org/2000/svg" xmlns:xlink="http://www.w3.org/1999/xlink" version="1.1" id="Capa_1" x="0px" y="0px" viewBox="0 0 368 368" style="enable-background:new 0 0 368 368;" xml:space="preserve" width="512px" height="512px">
<g>
	<g>
		<g>
			<path d="M184,0C82.544,0,0,82.544,0,184s82.544,184,184,184s184-82.544,184-184S285.456,0,184,0z M184,352     c-92.64,0-168-75.36-168-168S91.36,16,184,16s168,75.36,168,168S276.64,352,184,352z" fill="#ffb482"/>
			<path d="M264,128c-22.056,0-40,17.944-40,40c0,22.056,17.944,40,40,40c22.056,0,40-17.944,40-40C304,145.944,286.056,128,264,128     z M264,192c-13.232,0-24-10.768-24-24s10.768-24,24-24s24,10.768,24,24S277.232,192,264,192z" fill="#ffb482"/>
			<path d="M144,168c0-22.056-17.944-40-40-40c-22.056,0-40,17.944-40,40c0,22.056,17.944,40,40,40C126.056,208,144,190.056,144,168     z M104,192c-13.232,0-24-10.768-24-24s10.768-24,24-24s24,10.768,24,24S117.232,192,104,192z" fill="#ffb482"/>
			<path d="M232,240h-96c-4.416,0-8,3.584-8,8c0,4.416,3.584,8,8,8h96c4.416,0,8-3.584,8-8C240,243.584,236.416,240,232,240z" fill="#ffb482"/>
		</g>
	</g>
</g>
<g>
</g>
<g>
</g>
<g>
</g>
<g>
</g>
<g>
</g>
<g>
</g>
<g>
</g>
<g>
</g>
<g>
</g>
<g>
</g>
<g>
</g>
<g>
</g>
<g>
</g>
<g>
</g>
<g>
</g>
</svg>
